X:3758
T:Lone Bush, The
O:england
M:C|
L:1/8
C:Ed Reavy
R:hornpipe
K:G
(3DEF|:GcBd (3cdc dB|GABd c2Bc|dgfa gfdc|BABG FDCD|
GcBd (3cdc dB|GABd c2Bc|dgfd cAFA|1G2 AF G2 (3DEF:|2G2 AF G2 (3Bcd|
:gdBd =fcAc|gdBd =f2 (3de^f|gb=fa gfde|(3fga ge fdcA|
GcBd (3cdc dB|GABd c2Bc|dgfd cAFA|1G2 AF G2 (3Bcd:|2G2 AF G2 (3DEF||


